Costumes/i-block.svg

<?xml version="1.0" encoding="UTF-8" standalone="no"?>
<svg
   version="1.1"
   width="40.437618"
   height="79.93483"
   id="svg5"
   sodipodi:docname="i-block.svg"
   xmlns:inkscape="http://www.inkscape.org/namespaces/inkscape"
   xmlns:sodipodi="http://sodipodi.sourceforge.net/DTD/sodipodi-0.dtd"
   xmlns="http://www.w3.org/2000/svg"
   xmlns:svg="http://www.w3.org/2000/svg">
  <defs
     id="defs9" />
  <sodipodi:namedview
     id="namedview7"
     pagecolor="#ffffff"
     bordercolor="#000000"
     borderopacity="0.25"
     inkscape:showpageshadow="2"
     inkscape:pageopacity="0.0"
     inkscape:pagecheckerboard="0"
     inkscape:deskcolor="#d1d1d1" />
  <!-- Exported by Scratch - http://scratch.mit.edu/ -->
  <g
     id="ID0.8113708319142461"
     transform="translate(-0.51677018,-0.91463114)">
    <path
       id="ID0.7949924408458173"
       fill="#ff9400"
       d="m 321,358 c -1.043,2.833 -1.043,4.167 0,7 -2.225,1.442 -4.822,2.511 -9,2 -1.311,20.31 2.951,35.049 5,52 4.29,0.943 9.104,-0.186 8,8 -7.926,0.39 -16.891,0.501 -25,3 0,-2.333 0,-4.667 0,-7 1.334,-1.666 5.666,-0.334 7,-2 -1.391,-19.799 -3.206,-33.608 -4,-53 -2.214,-1.021 -9.16,0 -11,-4 2.306,-9.209 21.655,-7.976 29,-6 z"
       transform="matrix(0.94040972,0,0,0.94040972,-267.5,-331.05)" />
    <path
       id="ID0.08376348996534944"
       d="m 313,353 c 3.333,0 6.667,0 10,0 3.602,6.903 -2.195,14.895 -2,21 -2.735,1.595 -4.265,-0.497 -7,2 0.313,15.353 4.873,26.461 6,41 3.438,-0.438 5.604,0.396 8,1 0,4.333 0,8.667 0,13 -0.667,0 -1.333,0 -2,0 -2.029,0.638 -0.658,4.675 -3,5 -2.326,0.054 -13.722,-1.331 -16,2 -4.333,0 -8.667,0 -13,0 -1.332,-4.335 -1.687,-9.647 -2,-15 2.327,-2.006 6.22,-2.446 7,-6 -2.538,-13.04 -1.301,-26.676 -3,-42 -3.868,-0.535 -4.882,1.785 -9,1 -0.666,-6.215 0.424,-8.471 -2,-12 0,-1 0,-2 0,-3 0.667,0 1.333,0 2,0 4.254,0.921 0.066,-6.601 4,-6 8.077,0.077 15.691,-0.309 22,-2 z m -21,11 c 1.84,4 8.786,2.979 11,4 0.794,19.392 2.609,33.201 4,53 -1.334,1.666 -5.666,0.334 -7,2 0,2.333 0,4.667 0,7 8.109,-2.499 17.074,-2.61 25,-3 1.104,-8.186 -3.71,-7.057 -8,-8 -2.049,-16.951 -6.311,-31.69 -5,-52 4.178,0.511 6.775,-0.558 9,-2 -1.043,-2.833 -1.043,-4.167 0,-7 -7.345,-1.976 -26.694,-3.209 -29,6 z"
       transform="matrix(0.94040972,0,0,0.94040972,-267.5,-331.05)" />
  </g>
</svg>

<svg version="1.1" width="41" height="81" xmlns="http://www.w3.org/2000/svg" xmlns:xlink="http://www.w3.org/1999/xlink">
  <!-- Exported by Scratch - http://scratch.mit.edu/ -->
  <g id="ID0.8113708319142461">
    <path id="ID0.7949924408458173" fill="#FF9400" d="M 321 358 C 319.957 360.833 319.957 362.167 321 365 C 318.775 366.442 316.178 367.511 312 367 C 310.689 387.310 314.951 402.049 317 419 C 321.290 419.943 326.104 418.814 325 427 C 317.074 427.390 308.109 427.501 300 430 C 300 427.667 300 425.333 300 423 C 301.334 421.334 305.666 422.666 307 421 C 305.609 401.201 303.794 387.392 303 368 C 300.786 366.979 293.840 368 292 364 C 294.306 354.791 313.655 356.024 321 358 Z " transform="matrix(0.9404097199440002, 0, 0, 0.9404097199440002, -267.5, -331.05)"/>
    <path id="ID0.08376348996534944" d="M 313 353 C 316.333 353 319.667 353 323 353 C 326.602 359.903 320.805 367.895 321 374 C 318.265 375.595 316.735 373.503 314 376 C 314.313 391.353 318.873 402.461 320 417 C 323.438 416.562 325.604 417.396 328 418 C 328 422.333 328 426.667 328 431 C 327.333 431 326.667 431 326 431 C 323.971 431.638 325.342 435.675 323 436 C 320.674 436.054 309.278 434.669 307 438 C 302.667 438 298.333 438 294 438 C 292.668 433.665 292.313 428.353 292 423 C 294.327 420.994 298.220 420.554 299 417 C 296.462 403.960 297.699 390.324 296 375 C 292.132 374.465 291.118 376.785 287 376 C 286.334 369.785 287.424 367.529 285 364 C 285 363 285 362 285 361 C 285.667 361 286.333 361 287 361 C 291.254 361.921 287.066 354.399 291 355 C 299.077 355.077 306.691 354.691 313 353 Z M 292 364 C 293.840 368 300.786 366.979 303 368 C 303.794 387.392 305.609 401.201 307 421 C 305.666 422.666 301.334 421.334 300 423 C 300 425.333 300 427.667 300 430 C 308.109 427.501 317.074 427.390 325 427 C 326.104 418.814 321.290 419.943 317 419 C 314.951 402.049 310.689 387.310 312 367 C 316.178 367.511 318.775 366.442 321 365 C 319.957 362.167 319.957 360.833 321 358 C 313.655 356.024 294.306 354.791 292 364 Z " transform="matrix(0.9404097199440002, 0, 0, 0.9404097199440002, -267.5, -331.05)"/>
  </g>
</svg>
